X:1
T:Little Round Top, 87.87 D
T:Little Round Top, 87.87 D
T:Traditional
T:Public Domain Courtesy of the Cyber Hymnal™
C:Traditional
Z:Public Domain
Z:Courtesy of the Cyber Hymnal™
%%score ( 1 2 ) ( 3 4 )
L:1/8
Q:1/4=110
M:4/4
K:G
V:1 treble 
V:2 treble 
V:3 bass 
V:4 bass 
V:1
 G3 [FA] [GB]2 G2 | d3 z c [Gc]2 [GB]2 | [FA]2 [EG]2 [EB]2 [EA]2 | [DG]2 [CF]2 [B,G]4 | %4
 [DA]3 [^CA] [DA]2 [DA]2 | [DB]3 [GB] [GB]2 [FA]2 | [GB]2 [A^c]2 [Ad]2 [Ge]2 | [Fd]4 [E^c]4 | %8
 [Fd]8 | [GB]3 [Gc] [Gd]2 [Ec]2 | [Ec]2 [EB]2 [Ec]2 [Ec]2 | [DA]3 [DB] [Dc]2 [DB]2 | %12
 [DB]2 [DA]2 [DB]4 | G6 z z x2 | A6 A2 | B6 c2 | d6 z2 B2 | [Ge]6 [Ad]2 | [Gd]6 [Ac]2 | %19
 [GB]4 [FA]4 x2 | G8 |] %21
V:2
 G3 G2 x3 | A2 F2 x5 | x8 | x8 | x8 | x8 | x8 | x8 | x8 | x8 | x8 | x8 | x8 | D4 G3 G2 F | %14
 E4 (FEDC) | (B,2 D2) (G2 FE) | (D2 EF) G4 x2 | x8 | x8 | x10 | G8 |] %21
V:3
 [G,B,]3 [G,C] [G,D]2 [G,B,]2 | [F,D]2 [D,D]2 [G,D]2 [G,D]2 x | [D,C]2 [E,B,]2 [C,D]2 [C,C]2 | %3
 [D,B,]2 [D,A,]2 [G,,G,]4 | [D,F,]3 [E,G,] [F,A,]2 [D,F,]2 | G,3 [G,B,] [D,D]2 [D,D]2 | %6
 [G,D]2 [G,E]2 [F,D]2 [G,B,]2 | A,4 [A,,A,]4 | [D,A,]8 | G,3 [G,A,] [G,B,]2 A,2 | %10
 A,2 [E,^G,]2 A,2 A,2 | [D,F,]3 [D,G,] [D,A,]2 [D,G,]2 | [D,G,]2 [D,F,]2 [G,,G,]4 | %13
 B,6 z [D,B,]2 x | C3 B, A,2 F,2 | G,6 A,2 | ([B,,B,]3 [A,,C]) D4 x2 | C6 [F,C]2 | %18
 [G,B,]3 [A,C] ([B,D]2 [CE]2) | D6 z2 C2 | [G,,G,B,]8 |] %21
V:4
 x8 | x9 | x8 | x8 | x8 | G,3 x5 | x8 | A,4 x4 | x8 | G,3 A,2 x3 | A,2 A,2 A,2 x2 | x8 | x8 | %13
 G,3 F, E,2 x4 | E,4 D,4 | (G,3 F,) (E,2 D,C,) | x4 (B,,2 G,,2) x2 | (C,3 D,) E,2 x2 | x8 | %19
 D4 D,4 x2 | x8 |] %21

